packages/ui-icons/svg/Line/video-camera.svg

<svg viewBox="0 0 1920 1920" version="1.1" xmlns="http://www.w3.org/2000/svg">
    <path d="M0,240 L0,1680 L1500.53647,1680 L1500.53647,1241.11059 L1920,1574.06118 L1920,346.051765 L1500.53647,678.889412 L1500.53647,240 L0,240 Z M109.778824,349.778824 L1390.75765,349.778824 L1390.75765,678.889412 L1390.75765,906.127059 L1568.75294,764.837647 L1810.22118,573.176471 L1810.22118,960 L1810.22118,1346.82353 L1568.75294,1155.27529 L1390.75765,1013.98588 L1390.75765,1241.11059 L1390.75765,1570.22118 L109.778824,1570.22118 L109.778824,349.778824 Z" stroke="none" stroke-width="1" fill-rule="evenodd"/>
</svg>

<svg viewBox="0 0 1920 1920" version="1.1" xmlns="http://www.w3.org/2000/svg">
    <path d="M0 240v1440h1500.536v-438.89L1920 1574.062V346.051L1500.536 678.89V240H0zm109.779 109.779h1280.979v556.348l177.995-141.29 241.468-191.66V1346.823l-241.468-191.549-177.995-141.29v556.236H109.778V349.78z" stroke="none" stroke-width="1" fill-rule="evenodd"/>
</svg>
